!!!COM: Stravinsky, Igor (Fyodorovich)
!!!OTL: L'Histoire du soldat (The Soldier's Tale), to be Read, Played, and Danced
!!!OMV: Music to Scene II
!!!example: 379
!!!work: Str-15
**kern	**kern	**kern	**dynam
*part3	*part2	*part1	*part1
*staff3	*staff2	*staff1	*
*I"Violoncello	*I"Bassoon	*I"Clarinet in Bb	*
*I'Vc.	*I'Bsn.	*I'Cl.	*
*clefG2	*clefC4	*clefG2	*
*k[]	*k[]	*k[]	*
*C:	*C:	*C:	*
*M2/4	*M2/4	*M2/4	*
=6	=	=	=
2r	2r	4r	.
.	.	[4gg-X~	.
=7	=7	=7	=7
*M5/8	*M5/8	*M5/8	*
3...r	4f	8gg-]	.
.	.	8r	.
.	(4g#X	4.gg-X	.
.	8f)	.	.
=8	=8	=8	=8
3...r	8g#XL	(4ee	.
.	8f#X	.	.
.	(8g#J	4.gg-X)	.
.	4f#	.	.
=9	=9	=9	=9
*M4/8	*M4/8	*M4/8	*
2r	8g#XL)	(4ee	.
.	(8f#XJ	.	.
.	8g#L)	4gg-X	.
.	(8f#J	.	.
=10	=10	=10	=10
!!linebreak:original
*M6/8	*M6/8	*M6/8	*
2.r	8g#X)	4ff)	.
.	(4f#X	.	.
.	.	[8aa-X^	.
.	8g#	4.aa-]	]]
.	[4f#	.	.
=11	=11	=11	=11
*M5/8	*M5/8	*M5/8	*
3...r	8f#L])	4ee	]
.	(8g#XJ	.	.
.	.	(16qgg/LL	.
.	.	16qgg-X/JJ	.
.	4.f#X)	8ff)	.
.	.	[4ee	.
=12	=12	=12	=12
*M6/8	*M6/8	*M6/8	*
2.r	4.g#X	4ee])	.
.	.	4dd	.
.	4f#X	.	.
.	.	4ff	.
.	[8g#	.	.
=13	=13	=13	=13
*M5/8	*M5/8	*M5/8	*
.	.	(16qee/LL	.
.	.	16qff/JJ	.
3...r	4g#]	8ee)	.
.	.	4dd	.
.	[8f#X	.	.
.	8f#L]	4cc	.
.	[8g#XJ	.	.
==	==	==	==
*-	*-	*-	*-
!!!CDT: 1882/06/17-1971/04/06
!!!CBL: Lomonosov (Oranienbaum), Russia
!!!CDL: New York, United States
!!!CNT: Russian, French, American
!!!AGN: Stage; Theatrical
!!!MCN: Ansermet, Ernest
!!!MDT: 1918/09/28
!!!MGN: unknown
!!!MLC: Lausanne, Switzerland
!!!MPD: 1918
!!!MPN: unknown
!!!ODT: 1918
!!!PDT: 1924
!!!excerpt-start-measure: 6
!!!excerpt-end-measure: 16
!!!excerpt-start-time: 0:21
!!!excerpt-end-time: 1:04
!!!EEV: 2020/01/17
!!!system-decoration: [(s1,s2)]s3
!!!ONB: Converted from MusicXML on 2020/01/17
